src/images/svg/be-square/no-experience.svg

<svg width="64" height="64" viewBox="0 0 64 64" fill="none" xmlns="http://www.w3.org/2000/svg">
<g clip-path="url(#clip0)">
<path d="M62.765 19.6406L49.2549 15.0747C48.7645 14.9097 48.2323 15.1722 48.0664 15.6627C47.9007 16.1533 48.1639 16.6854 48.6545 16.8512L62.0356 21.3736L55.7369 24.4444C55.4754 24.268 55.1818 24.1326 54.8636 24.0495L35.9706 19.1118C35.3701 16.0223 31.5661 14.7256 29.2296 16.9243C28.4209 17.6853 27.9571 18.7585 27.9571 19.8687V19.8892C27.9637 21.1964 29.0457 22.2599 30.3691 22.2599H33.6311C34.4734 22.2599 35.3158 21.8203 35.7527 20.9929L53.3716 25.5977C47.8045 28.3118 35.3071 34.4048 33.714 35.1816C32.5894 35.7298 31.3364 35.6938 30.286 35.1816L1.96422 21.3736L30.7477 11.6457C31.5551 11.3727 32.4448 11.3727 33.2522 11.6457L44.49 15.4438C44.9806 15.6095 45.5125 15.3466 45.6784 14.8558C45.8442 14.3653 45.5809 13.8331 45.0904 13.6674L33.8526 9.86926C32.6578 9.46562 31.3421 9.46562 30.1472 9.86926L1.2348 19.6406C-0.301287 20.1601 -0.43992 22.2876 1.02004 22.9993L15.8582 30.2335C15.0419 34.1143 13.7955 38.2924 12.441 42.0009C11.8864 43.5175 12.3642 45.2046 13.6295 46.1991C17.9117 49.5647 22.9712 52.1646 28.1569 53.8358C30.5938 54.621 33.3111 54.6513 35.8425 53.8358C41.0298 52.1639 46.0898 49.563 50.3697 46.1991C51.6396 45.2007 52.1109 43.5129 51.5583 42.0009C50.2323 38.3747 48.969 34.1693 48.1412 30.2338L55.1208 26.831V40.9418C53.9279 41.0332 52.9846 42.0309 52.9846 43.2468V45.979C52.9846 46.3849 53.1609 46.7496 53.4396 47.0036L53.0913 52.2691C53.0233 53.2978 53.8413 54.1721 54.8726 54.1721H57.2445C58.2753 54.1721 59.0936 53.2982 59.0256 52.2691L58.6774 47.0036C58.9562 46.7496 59.1325 46.385 59.1325 45.979V43.2467C59.1325 42.0308 58.189 41.0331 56.9961 40.9417V26.8106C56.9961 26.5225 56.9507 26.2433 56.8697 25.9783L62.9798 22.9994C64.4379 22.2885 64.3036 20.1609 62.765 19.6406ZM33.6311 20.3848H30.3691C30.0795 20.3848 29.8336 20.1535 29.8322 19.8845V19.8687C29.8322 19.2647 30.0745 18.704 30.5146 18.2898C31.8648 17.0191 34.0775 17.9337 34.1651 19.7613C34.186 20.199 33.9042 20.3848 33.6311 20.3848ZM48.7416 39.5908C43.676 43.5552 36.4874 46.3913 34.0112 46.8633C33.5026 46.9603 33.1689 47.4513 33.2659 47.9599C33.3629 48.4687 33.8553 48.8023 34.3625 48.7052C36.9525 48.2113 44.0488 45.4535 49.376 41.4669C49.507 41.8405 49.6588 42.2659 49.7972 42.6446C50.0722 43.3971 49.8365 44.2329 49.211 44.7248C44.1619 48.6929 38.8415 50.899 35.2673 52.0507C33.1324 52.7389 30.8137 52.7219 28.732 52.0507C25.1578 50.8989 19.8374 48.6929 14.7883 44.7248C14.1629 44.2332 13.9269 43.3975 14.2023 42.6444C14.2078 42.6294 14.2132 42.6142 14.2187 42.5992C14.3549 42.2259 14.506 41.8023 14.6233 41.4666C19.8246 45.3578 26.9016 48.1839 29.636 48.7055C30.1453 48.8023 30.6357 48.4689 30.7327 47.9604C30.8297 47.4517 30.496 46.9607 29.9875 46.8637C27.6499 46.418 20.4366 43.642 15.2578 39.5906C16.0192 37.2621 16.9015 34.2697 17.595 31.0803L29.4642 36.8668C31.0446 37.6374 32.8937 37.6675 34.5358 36.8668L46.4042 31.0805C47.0977 34.2698 47.98 37.2622 48.7416 39.5908ZM54.9686 52.2969L55.2947 47.3667H56.8221L57.1481 52.2969H54.9686ZM57.2572 43.2466V45.4915H54.8597V43.2466C54.8597 43.0087 55.0606 42.8077 55.2986 42.8077H56.8182C57.0561 42.8078 57.2572 43.0087 57.2572 43.2466Z" fill="#FF444F"/>
</g>
<defs>
<clipPath id="clip0">
<rect width="64" height="64" fill="white"/>
</clipPath>
</defs>
</svg>

<svg xmlns="http://www.w3.org/2000/svg" width="64" height="64" fill="none"  xmlns:v="https://vecta.io/nano"><g clip-path="url(#A)"><path d="M62.765 19.641l-13.51-4.566a.94.94 0 0 0-1.188.588.94.94 0 0 0 .588 1.188l13.381 4.522-6.299 3.071c-.261-.176-.555-.312-.873-.395l-18.893-4.938c-.6-3.089-4.404-4.386-6.741-2.187a4.06 4.06 0 0 0-1.273 2.944v.02c.007 1.307 1.089 2.371 2.412 2.371h3.262c.842 0 1.685-.44 2.122-1.267l17.619 4.605-19.658 9.584a3.89 3.89 0 0 1-3.428 0L1.964 21.374l28.783-9.728a3.93 3.93 0 0 1 2.505 0l11.238 3.798a.94.94 0 0 0 1.188-.588.94.94 0 0 0-.588-1.188L33.853 9.869a5.82 5.82 0 0 0-3.705 0L1.235 19.641c-1.536.52-1.675 2.647-.215 3.359l14.838 7.234c-.816 3.881-2.063 8.059-3.417 11.767-.555 1.517-.077 3.204 1.188 4.198 4.282 3.366 9.342 5.965 14.527 7.637a12.6 12.6 0 0 0 7.686 0c5.187-1.672 10.247-4.273 14.527-7.637 1.27-.998 1.741-2.686 1.189-4.198-1.326-3.626-2.589-7.832-3.417-11.767l6.98-3.403v14.111c-1.193.091-2.136 1.089-2.136 2.305v2.732c0 .406.176.771.455 1.025l-.348 5.266c-.068 1.029.75 1.903 1.781 1.903h2.372c1.031 0 1.849-.874 1.781-1.903l-.348-5.266c.279-.254.455-.619.455-1.025v-2.732c0-1.216-.944-2.214-2.136-2.305V26.811c0-.288-.045-.567-.126-.832l6.11-2.979c1.458-.711 1.324-2.838-.215-3.359zm-29.134.744h-3.262c-.29 0-.535-.231-.537-.5v-.016c0-.604.242-1.165.682-1.579 1.35-1.271 3.563-.356 3.651 1.471.021.438-.261.624-.534.624zm15.11 19.206c-5.066 3.964-12.254 6.801-14.73 7.273a.94.94 0 0 0-.745 1.097.94.94 0 0 0 1.097.745c2.59-.494 9.686-3.252 15.014-7.238l.421 1.178c.275.753.039 1.588-.586 2.08-5.049 3.968-10.369 6.174-13.944 7.326a10.73 10.73 0 0 1-6.535 0c-3.574-1.152-8.895-3.358-13.944-7.326-.625-.492-.861-1.327-.586-2.08l.016-.045.405-1.133c5.201 3.891 12.278 6.717 15.013 7.239a.94.94 0 0 0 1.097-.745.94.94 0 0 0-.745-1.097c-2.338-.446-9.551-3.222-14.73-7.273.761-2.329 1.644-5.321 2.337-8.51l11.869 5.786a5.75 5.75 0 0 0 5.072 0l11.868-5.786c.694 3.189 1.576 6.182 2.337 8.51zm6.227 12.706l.326-4.93h1.527l.326 4.93h-2.179zm2.289-9.05v2.245H54.86v-2.245c0-.238.201-.439.439-.439h1.52c.238 0 .439.201.439.439z" fill="#ff444f"/></g><defs><clipPath id="A"><path fill="#fff" d="M0 0h64v64H0z"/></clipPath></defs></svg>
